assets/icons/social/instagram.svg

<svg xmlns="http://www.w3.org/2000/svg" style="isolation:isolate" width="195" height="195"><defs><clipPath id="a"><path d="M0 0h195v195H0z"/></clipPath></defs><g clip-path="url(#a)"><path fill="#12100E" d="M0 0h195v195H0z"/><g fill="#FFF"><path d="M121.246 38.75H73.754c-19.301 0-35.004 15.703-35.004 35.004v47.492c0 19.301 15.703 35.004 35.004 35.004h47.492c19.301 0 35.004-15.703 35.004-35.004V73.754c0-19.301-15.703-35.004-35.004-35.004zm23.184 82.496c0 12.804-10.38 23.184-23.184 23.184H73.754c-12.804 0-23.184-10.38-23.184-23.184V73.754c0-12.804 10.38-23.184 23.184-23.184h47.492c12.804 0 23.184 10.38 23.184 23.184v47.492z"/><path d="M97.5 67.11c-16.757 0-30.39 13.633-30.39 30.39 0 16.756 13.633 30.389 30.39 30.389s30.39-13.632 30.39-30.389c0-16.757-13.633-30.39-30.39-30.39zm0 48.959c-10.256 0-18.569-8.313-18.569-18.569 0-10.256 8.314-18.569 18.569-18.569 10.256 0 18.569 8.313 18.569 18.569 0 10.255-8.314 18.569-18.569 18.569z"/><circle vector-effect="non-scaling-stroke" cx="127.89" cy="67.11" r="7.282"/></g></g></svg>

<?xml version="1.0" standalone="no"?><!-- Generator: Gravit.io --><svg xmlns="http://www.w3.org/2000/svg" xmlns:xlink="http://www.w3.org/1999/xlink" style="isolation:isolate" viewBox="0 0 195 195" width="195" height="195"><defs><clipPath id="_clipPath_6z0mRytBtyMRpKEwY5ZRt5En2pyUZoue"><rect width="195" height="195"/></clipPath></defs><g clip-path="url(#_clipPath_6z0mRytBtyMRpKEwY5ZRt5En2pyUZoue)"><g><rect x="0" y="0" width="195" height="195" transform="matrix(1,0,0,1,0,0)" fill="rgb(18,16,14)"/></g><g><path d=" M 121.246 38.75 L 73.754 38.75 C 54.453 38.75 38.75 54.453 38.75 73.754 L 38.75 121.246 C 38.75 140.547 54.453 156.25 73.754 156.25 L 121.246 156.25 C 140.547 156.25 156.25 140.547 156.25 121.246 L 156.25 73.754 C 156.25 54.453 140.547 38.75 121.246 38.75 Z  M 144.43 121.246 C 144.43 134.05 134.05 144.43 121.246 144.43 L 73.754 144.43 C 60.95 144.43 50.57 134.05 50.57 121.246 L 50.57 73.754 C 50.57 60.95 60.95 50.57 73.754 50.57 L 121.246 50.57 C 134.05 50.57 144.43 60.95 144.43 73.754 L 144.43 121.246 L 144.43 121.246 Z " fill="rgb(255,255,255)"/><path d=" M 97.5 67.11 C 80.743 67.11 67.11 80.743 67.11 97.5 C 67.11 114.256 80.743 127.889 97.5 127.889 C 114.257 127.889 127.89 114.257 127.89 97.5 C 127.89 80.743 114.257 67.11 97.5 67.11 Z  M 97.5 116.069 C 87.244 116.069 78.931 107.756 78.931 97.5 C 78.931 87.244 87.245 78.931 97.5 78.931 C 107.756 78.931 116.069 87.244 116.069 97.5 C 116.069 107.755 107.755 116.069 97.5 116.069 Z " fill="rgb(255,255,255)"/><circle vector-effect="non-scaling-stroke" cx="127.88968103601584" cy="67.11031896398408" r="7.281991673834995" fill="rgb(255,255,255)"/></g></g></svg>
